images/50412145.svg

<?xml version="1.0" encoding="UTF-8"?>
<svg xmlns="http://www.w3.org/2000/svg" xmlns:xlink="http://www.w3.org/1999/xlink" width="300pt" height="300pt" viewBox="0 0 300 300" version="1.1">
<defs>
<g>
<symbol overflow="visible" id="glyph0-0">
<path style="stroke:none;" d="M 0.453125 1.59375 L 0.453125 -6.34375 L 4.953125 -6.34375 L 4.953125 1.59375 Z M 0.953125 1.09375 L 4.453125 1.09375 L 4.453125 -5.84375 L 0.953125 -5.84375 Z M 0.953125 1.09375 "/>
</symbol>
<symbol overflow="visible" id="glyph0-1">
<path style="stroke:none;" d="M 3.546875 -5.953125 C 2.898438 -5.953125 2.382812 -5.710938 2 -5.234375 C 1.625 -4.753906 1.4375 -4.101562 1.4375 -3.28125 C 1.4375 -2.445312 1.625 -1.789062 2 -1.3125 C 2.382812 -0.832031 2.898438 -0.59375 3.546875 -0.59375 C 4.191406 -0.59375 4.703125 -0.832031 5.078125 -1.3125 C 5.453125 -1.789062 5.640625 -2.445312 5.640625 -3.28125 C 5.640625 -4.101562 5.453125 -4.753906 5.078125 -5.234375 C 4.703125 -5.710938 4.191406 -5.953125 3.546875 -5.953125 Z M 3.546875 -6.6875 C 4.460938 -6.6875 5.195312 -6.375 5.75 -5.75 C 6.300781 -5.132812 6.578125 -4.3125 6.578125 -3.28125 C 6.578125 -2.238281 6.300781 -1.410156 5.75 -0.796875 C 5.195312 -0.179688 4.460938 0.125 3.546875 0.125 C 2.617188 0.125 1.878906 -0.179688 1.328125 -0.796875 C 0.773438 -1.410156 0.5 -2.238281 0.5 -3.28125 C 0.5 -4.3125 0.773438 -5.132812 1.328125 -5.75 C 1.878906 -6.375 2.617188 -6.6875 3.546875 -6.6875 Z M 3.546875 -6.6875 "/>
</symbol>
<symbol overflow="visible" id="glyph0-2">
<path style="stroke:none;" d="M 0.890625 -6.5625 L 2.078125 -6.5625 L 4.984375 -1.078125 L 4.984375 -6.5625 L 5.84375 -6.5625 L 5.84375 0 L 4.65625 0 L 1.75 -5.484375 L 1.75 0 L 0.890625 0 Z M 0.890625 -6.5625 "/>
</symbol>
<symbol overflow="visible" id="glyph0-3">
<path style="stroke:none;" d="M 0.890625 -6.5625 L 1.765625 -6.5625 L 1.765625 -3.875 L 5 -3.875 L 5 -6.5625 L 5.890625 -6.5625 L 5.890625 0 L 5 0 L 5 -3.125 L 1.765625 -3.125 L 1.765625 0 L 0.890625 0 Z M 0.890625 -6.5625 "/>
</symbol>
<symbol overflow="visible" id="glyph1-0">
<path style="stroke:none;" d="M 0.40625 1.421875 L 0.40625 -5.640625 L 4.40625 -5.640625 L 4.40625 1.421875 Z M 0.84375 0.96875 L 3.953125 0.96875 L 3.953125 -5.1875 L 0.84375 -5.1875 Z M 0.84375 0.96875 "/>
</symbol>
<symbol overflow="visible" id="glyph1-1">
<path style="stroke:none;" d="M 3.6875 -5.015625 L 3.6875 -2.84375 L 5.859375 -2.84375 L 5.859375 -2.171875 L 3.6875 -2.171875 L 3.6875 0 L 3.03125 0 L 3.03125 -2.171875 L 0.84375 -2.171875 L 0.84375 -2.84375 L 3.03125 -2.84375 L 3.03125 -5.015625 Z M 3.6875 -5.015625 "/>
</symbol>
<symbol overflow="visible" id="glyph1-2">
<path style="stroke:none;" d="M 0.390625 -2.515625 L 2.5 -2.515625 L 2.5 -1.875 L 0.390625 -1.875 Z M 0.390625 -2.515625 "/>
</symbol>
</g>
</defs>
<g id="surface12413">
<rect x="0" y="0" width="300" height="300" style="fill:rgb(100%,100%,100%);fill-opacity:1;stroke:none;"/>
<path style="fill:none;stroke-width:1.2;stroke-linecap:butt;stroke-linejoin:miter;stroke:rgb(100%,0%,0%);stroke-opacity:1;stroke-miterlimit:10;" d="M 113.546875 125.929688 L 117.082031 137.628906 "/>
<path style="fill:none;stroke-width:1.2;stroke-linecap:butt;stroke-linejoin:miter;stroke:rgb(0%,0%,0%);stroke-opacity:1;stroke-miterlimit:10;" d="M 117.082031 137.628906 L 120.613281 149.328125 "/>
<path style="fill:none;stroke-width:1.2;stroke-linecap:butt;stroke-linejoin:miter;stroke:rgb(100%,0%,0%);stroke-opacity:1;stroke-miterlimit:10;" d="M 119.050781 124.269531 L 122.585938 135.96875 "/>
<path style="fill:none;stroke-width:1.2;stroke-linecap:butt;stroke-linejoin:miter;stroke:rgb(0%,0%,0%);stroke-opacity:1;stroke-miterlimit:10;" d="M 122.585938 135.96875 L 126.117188 147.664062 "/>
<path style=" stroke:none;fill-rule:nonzero;fill:rgb(100%,100%,100%);fill-opacity:1;" d="M 108.300781 119.601562 L 116.300781 119.601562 L 116.300781 130.601562 L 108.300781 130.601562 Z M 108.300781 119.601562 "/>
<g style="fill:rgb(100%,0%,0%);fill-opacity:1;">
  <use xlink:href="#glyph0-1" x="108.300781" y="128.264648"/>
</g>
<path style="fill:none;stroke-width:1.2;stroke-linecap:butt;stroke-linejoin:miter;stroke:rgb(0%,0%,0%);stroke-opacity:1;stroke-miterlimit:10;" d="M 123.367188 148.496094 L 135.265625 151.285156 "/>
<path style="fill:none;stroke-width:1.2;stroke-linecap:butt;stroke-linejoin:miter;stroke:rgb(0%,0%,100%);stroke-opacity:1;stroke-miterlimit:10;" d="M 135.265625 151.285156 L 147.160156 154.078125 "/>
<path style="fill:none;stroke-width:1.2;stroke-linecap:butt;stroke-linejoin:miter;stroke:rgb(0%,0%,0%);stroke-opacity:1;stroke-miterlimit:10;" d="M 123.367188 148.496094 L 106.636719 166.316406 "/>
<path style="fill:none;stroke-width:1.2;stroke-linecap:butt;stroke-linejoin:miter;stroke:rgb(0%,0%,100%);stroke-opacity:1;stroke-miterlimit:10;" d="M 147.160156 154.078125 L 155.527344 145.167969 "/>
<path style="fill:none;stroke-width:1.2;stroke-linecap:butt;stroke-linejoin:miter;stroke:rgb(0%,0%,0%);stroke-opacity:1;stroke-miterlimit:10;" d="M 155.527344 145.167969 L 163.890625 136.257812 "/>
<path style=" stroke:none;fill-rule:nonzero;fill:rgb(100%,100%,100%);fill-opacity:1;" d="M 140.160156 148.578125 L 154.160156 148.578125 L 154.160156 159.578125 L 140.160156 159.578125 Z M 140.160156 148.578125 "/>
<g style="fill:rgb(0%,0%,100%);fill-opacity:1;">
  <use xlink:href="#glyph0-2" x="140.160156" y="157.241211"/>
  <use xlink:href="#glyph0-3" x="147.137695" y="157.241211"/>
</g>
<path style="fill:none;stroke-width:1.2;stroke-linecap:butt;stroke-linejoin:miter;stroke:rgb(0%,0%,0%);stroke-opacity:1;stroke-miterlimit:10;" d="M 163.890625 136.257812 L 161.601562 124.253906 "/>
<path style="fill:none;stroke-width:1.2;stroke-linecap:butt;stroke-linejoin:miter;stroke:rgb(0%,0%,100%);stroke-opacity:1;stroke-miterlimit:10;" d="M 161.601562 124.253906 L 159.308594 112.25 "/>
<path style="fill:none;stroke-width:1.2;stroke-linecap:butt;stroke-linejoin:miter;stroke:rgb(0%,0%,0%);stroke-opacity:1;stroke-miterlimit:10;" d="M 169.082031 132.78125 L 167.25 123.175781 "/>
<path style="fill:none;stroke-width:1.2;stroke-linecap:butt;stroke-linejoin:miter;stroke:rgb(0%,0%,100%);stroke-opacity:1;stroke-miterlimit:10;" d="M 167.25 123.175781 L 165.417969 113.574219 "/>
<path style="fill:none;stroke-width:1.2;stroke-linecap:butt;stroke-linejoin:miter;stroke:rgb(0%,0%,0%);stroke-opacity:1;stroke-miterlimit:10;" d="M 188.140625 139.320312 L 163.890625 136.257812 "/>
<path style="fill:none;stroke-width:1.2;stroke-linecap:butt;stroke-linejoin:miter;stroke:rgb(0%,0%,100%);stroke-opacity:1;stroke-miterlimit:10;" d="M 159.308594 112.25 L 180.726562 100.476562 "/>
<path style=" stroke:none;fill-rule:nonzero;fill:rgb(100%,100%,100%);fill-opacity:1;" d="M 156.308594 106.75 L 163.308594 106.75 L 163.308594 117.75 L 156.308594 117.75 Z M 156.308594 106.75 "/>
<g style="fill:rgb(0%,0%,100%);fill-opacity:1;">
  <use xlink:href="#glyph0-2" x="156.308594" y="115.413086"/>
</g>
<path style="fill:none;stroke-width:1.2;stroke-linecap:butt;stroke-linejoin:miter;stroke:rgb(0%,0%,100%);stroke-opacity:1;stroke-miterlimit:10;" d="M 180.726562 100.476562 L 189.636719 108.839844 "/>
<path style="fill:none;stroke-width:1.2;stroke-linecap:butt;stroke-linejoin:miter;stroke:rgb(0%,0%,0%);stroke-opacity:1;stroke-miterlimit:10;" d="M 189.636719 108.839844 L 198.542969 117.203125 "/>
<path style=" stroke:none;fill-rule:nonzero;fill:rgb(100%,100%,100%);fill-opacity:1;" d="M 173.726562 94.976562 L 187.726562 94.976562 L 187.726562 105.976562 L 173.726562 105.976562 Z M 173.726562 94.976562 "/>
<g style="fill:rgb(0%,0%,100%);fill-opacity:1;">
  <use xlink:href="#glyph0-2" x="173.726562" y="103.639648"/>
  <use xlink:href="#glyph0-3" x="180.704102" y="103.639648"/>
</g>
<path style="fill:none;stroke-width:1.2;stroke-linecap:butt;stroke-linejoin:miter;stroke:rgb(0%,0%,0%);stroke-opacity:1;stroke-miterlimit:10;" d="M 198.542969 117.203125 L 188.140625 139.320312 "/>
<path style="fill:none;stroke-width:1.2;stroke-linecap:butt;stroke-linejoin:miter;stroke:rgb(0%,0%,0%);stroke-opacity:1;stroke-miterlimit:10;" d="M 202.707031 121.863281 L 194.382812 139.554688 "/>
<path style="fill:none;stroke-width:1.2;stroke-linecap:butt;stroke-linejoin:miter;stroke:rgb(0%,0%,0%);stroke-opacity:1;stroke-miterlimit:10;" d="M 222.898438 115.15625 L 198.542969 117.203125 "/>
<path style="fill:none;stroke-width:1.2;stroke-linecap:butt;stroke-linejoin:miter;stroke:rgb(0%,0%,0%);stroke-opacity:1;stroke-miterlimit:10;" d="M 188.140625 139.320312 L 202.089844 159.386719 "/>
<path style="fill:none;stroke-width:1.2;stroke-linecap:butt;stroke-linejoin:miter;stroke:rgb(0%,0%,0%);stroke-opacity:1;stroke-miterlimit:10;" d="M 202.089844 159.386719 L 226.445312 157.339844 "/>
<path style="fill:none;stroke-width:1.2;stroke-linecap:butt;stroke-linejoin:miter;stroke:rgb(0%,0%,0%);stroke-opacity:1;stroke-miterlimit:10;" d="M 204.042969 153.453125 L 223.527344 151.816406 "/>
<path style="fill:none;stroke-width:1.2;stroke-linecap:butt;stroke-linejoin:miter;stroke:rgb(0%,0%,0%);stroke-opacity:1;stroke-miterlimit:10;" d="M 226.445312 157.339844 L 233.417969 167.375 "/>
<path style="fill:none;stroke-width:1.2;stroke-linecap:butt;stroke-linejoin:miter;stroke:rgb(0%,0%,100%);stroke-opacity:1;stroke-miterlimit:10;" d="M 233.417969 167.375 L 240.394531 177.410156 "/>
<path style="fill:none;stroke-width:1.2;stroke-linecap:butt;stroke-linejoin:miter;stroke:rgb(0%,0%,0%);stroke-opacity:1;stroke-miterlimit:10;" d="M 226.445312 157.339844 L 236.847656 135.226562 "/>
<path style="fill:none;stroke-width:1.2;stroke-linecap:butt;stroke-linejoin:miter;stroke:rgb(0%,0%,100%);stroke-opacity:1;stroke-miterlimit:10;" d="M 240.636719 180.273438 L 252.8125 179.25 "/>
<path style="fill:none;stroke-width:1.2;stroke-linecap:butt;stroke-linejoin:miter;stroke:rgb(100%,0%,0%);stroke-opacity:1;stroke-miterlimit:10;" d="M 252.8125 179.25 L 264.992188 178.226562 "/>
<path style="fill:none;stroke-width:1.2;stroke-linecap:butt;stroke-linejoin:miter;stroke:rgb(0%,0%,100%);stroke-opacity:1;stroke-miterlimit:10;" d="M 240.152344 174.542969 L 252.332031 173.519531 "/>
<path style="fill:none;stroke-width:1.2;stroke-linecap:butt;stroke-linejoin:miter;stroke:rgb(100%,0%,0%);stroke-opacity:1;stroke-miterlimit:10;" d="M 252.332031 173.519531 L 264.507812 172.496094 "/>
<path style="fill:none;stroke-width:1.2;stroke-linecap:butt;stroke-linejoin:miter;stroke:rgb(0%,0%,100%);stroke-opacity:1;stroke-miterlimit:10;" d="M 240.394531 177.410156 L 235.191406 188.46875 "/>
<path style="fill:none;stroke-width:1.2;stroke-linecap:butt;stroke-linejoin:miter;stroke:rgb(100%,0%,0%);stroke-opacity:1;stroke-miterlimit:10;" d="M 235.191406 188.46875 L 229.992188 199.523438 "/>
<path style=" stroke:none;fill-rule:nonzero;fill:rgb(100%,100%,100%);fill-opacity:1;" d="M 233.394531 169.910156 L 247.394531 169.910156 L 247.394531 184.910156 L 233.394531 184.910156 Z M 233.394531 169.910156 "/>
<g style="fill:rgb(0%,0%,100%);fill-opacity:1;">
  <use xlink:href="#glyph0-2" x="233.394531" y="182.011719"/>
</g>
<g style="fill:rgb(0%,0%,100%);fill-opacity:1;">
  <use xlink:href="#glyph1-1" x="240.37207" y="177.128906"/>
</g>
<path style=" stroke:none;fill-rule:nonzero;fill:rgb(100%,100%,100%);fill-opacity:1;" d="M 260.75 169.863281 L 268.75 169.863281 L 268.75 180.863281 L 260.75 180.863281 Z M 260.75 169.863281 "/>
<g style="fill:rgb(100%,0%,0%);fill-opacity:1;">
  <use xlink:href="#glyph0-1" x="260.75" y="178.526367"/>
</g>
<path style=" stroke:none;fill-rule:nonzero;fill:rgb(100%,100%,100%);fill-opacity:1;" d="M 218.992188 192.023438 L 229.992188 192.023438 L 229.992188 207.023438 L 218.992188 207.023438 Z M 218.992188 192.023438 "/>
<g style="fill:rgb(100%,0%,0%);fill-opacity:1;">
  <use xlink:href="#glyph1-2" x="218.992188" y="199.242188"/>
</g>
<g style="fill:rgb(100%,0%,0%);fill-opacity:1;">
  <use xlink:href="#glyph0-1" x="221.799805" y="204.125"/>
</g>
<path style="fill:none;stroke-width:1.2;stroke-linecap:butt;stroke-linejoin:miter;stroke:rgb(0%,0%,0%);stroke-opacity:1;stroke-miterlimit:10;" d="M 236.847656 135.226562 L 222.898438 115.15625 "/>
<path style="fill:none;stroke-width:1.2;stroke-linecap:butt;stroke-linejoin:miter;stroke:rgb(0%,0%,0%);stroke-opacity:1;stroke-miterlimit:10;" d="M 230.730469 136.5 L 219.570312 120.445312 "/>
<path style="fill:none;stroke-width:1.2;stroke-linecap:butt;stroke-linejoin:miter;stroke:rgb(0%,0%,0%);stroke-opacity:1;stroke-miterlimit:10;" d="M 106.636719 166.316406 L 82.839844 160.734375 "/>
<path style="fill:none;stroke-width:1.2;stroke-linecap:butt;stroke-linejoin:miter;stroke:rgb(0%,0%,0%);stroke-opacity:1;stroke-miterlimit:10;" d="M 82.839844 160.734375 L 75.773438 137.339844 "/>
<path style="fill:none;stroke-width:1.2;stroke-linecap:butt;stroke-linejoin:miter;stroke:rgb(0%,0%,0%);stroke-opacity:1;stroke-miterlimit:10;" d="M 76.628906 160.058594 L 70.976562 141.339844 "/>
<path style="fill:none;stroke-width:1.2;stroke-linecap:butt;stroke-linejoin:miter;stroke:rgb(0%,0%,0%);stroke-opacity:1;stroke-miterlimit:10;" d="M 66.113281 178.554688 L 82.839844 160.734375 "/>
<path style="fill:none;stroke-width:1.2;stroke-linecap:butt;stroke-linejoin:miter;stroke:rgb(0%,0%,0%);stroke-opacity:1;stroke-miterlimit:10;" d="M 75.773438 137.339844 L 51.980469 131.757812 "/>
<path style="fill:none;stroke-width:1.2;stroke-linecap:butt;stroke-linejoin:miter;stroke:rgb(0%,0%,0%);stroke-opacity:1;stroke-miterlimit:10;" d="M 51.980469 131.757812 L 35.25 149.578125 "/>
<path style="fill:none;stroke-width:1.2;stroke-linecap:butt;stroke-linejoin:miter;stroke:rgb(0%,0%,0%);stroke-opacity:1;stroke-miterlimit:10;" d="M 54.5 137.476562 L 41.117188 151.730469 "/>
<path style="fill:none;stroke-width:1.2;stroke-linecap:butt;stroke-linejoin:miter;stroke:rgb(0%,0%,0%);stroke-opacity:1;stroke-miterlimit:10;" d="M 35.25 149.578125 L 42.316406 172.976562 "/>
<path style="fill:none;stroke-width:1.2;stroke-linecap:butt;stroke-linejoin:miter;stroke:rgb(0%,0%,0%);stroke-opacity:1;stroke-miterlimit:10;" d="M 42.316406 172.976562 L 66.113281 178.554688 "/>
<path style="fill:none;stroke-width:1.2;stroke-linecap:butt;stroke-linejoin:miter;stroke:rgb(0%,0%,0%);stroke-opacity:1;stroke-miterlimit:10;" d="M 46.007812 167.933594 L 65.042969 172.398438 "/>
</g>
</svg>

<svg xmlns="http://www.w3.org/2000/svg" xmlns:xlink="http://www.w3.org/1999/xlink" width="300pt" height="300pt" viewBox="0 0 300 300"><defs><symbol overflow="visible"><path d="M.453 1.594v-7.938h4.5v7.938zm.5-.5h3.5v-6.938h-3.5zm0 0"/></symbol><symbol overflow="visible" id="a"><path d="M3.547-5.953c-.65 0-1.164.242-1.547.72-.375.48-.563 1.13-.563 1.952 0 .835.188 1.49.563 1.967.383.48.898.72 1.547.72.644 0 1.156-.24 1.53-.72.376-.476.564-1.132.564-1.968 0-.822-.187-1.474-.562-1.954-.375-.477-.887-.72-1.53-.72zm0-.734c.914 0 1.648.312 2.203.937.55.617.828 1.438.828 2.47 0 1.042-.277 1.87-.828 2.483-.555.617-1.29.922-2.203.922-.93 0-1.668-.305-2.22-.922C.774-1.41.5-2.237.5-3.28c0-1.033.273-1.853.828-2.47.55-.625 1.29-.938 2.22-.938zm0 0"/></symbol><symbol overflow="visible" id="b"><path d="M.89-6.563H2.08l2.906 5.485v-5.484h.86V0H4.656L1.75-5.484V0H.89zm0 0"/></symbol><symbol overflow="visible" id="c"><path d="M.89-6.563h.876v2.688H5v-2.688h.89V0H5v-3.125H1.766V0H.89zm0 0"/></symbol><symbol overflow="visible"><path d="M.406 1.422V-5.64h4V1.42zM.844.97h3.11v-6.157H.843zm0 0"/></symbol><symbol overflow="visible" id="d"><path d="M3.688-5.016v2.172h2.17v.672H3.69V0H3.03v-2.172H.845v-.672H3.03v-2.172zm0 0"/></symbol><symbol overflow="visible" id="e"><path d="M.39-2.516H2.5v.64H.39zm0 0"/></symbol></defs><g><path fill="#fff" d="M0 0h300v300H0z"/><path d="M113.547 125.93l3.535 11.7" stroke-width="1.2" stroke="#f00" stroke-miterlimit="10" fill="none"/><path d="M117.082 137.63l3.53 11.698" stroke-width="1.2" stroke="#000" stroke-miterlimit="10" fill="none"/><path d="M119.05 124.27l3.536 11.7" stroke-width="1.2" stroke="#f00" stroke-miterlimit="10" fill="none"/><path d="M122.586 135.97l3.53 11.694" stroke-width="1.2" stroke="#000" stroke-miterlimit="10" fill="none"/><path d="M108.3 119.602h8v11h-8zm0 0" fill="#fff"/><use xlink:href="#a" x="108.301" y="128.265" fill="#f00"/><path d="M123.367 148.496l11.9 2.79" stroke-width="1.2" stroke="#000" stroke-miterlimit="10" fill="none"/><path d="M135.266 151.285l11.894 2.793" stroke-width="1.2" stroke="#00f" stroke-miterlimit="10" fill="none"/><path d="M123.367 148.496l-16.73 17.82" stroke-width="1.2" stroke="#000" stroke-miterlimit="10" fill="none"/><path d="M147.16 154.078l8.367-8.91" stroke-width="1.2" stroke="#00f" stroke-miterlimit="10" fill="none"/><path d="M155.527 145.168l8.364-8.91" stroke-width="1.2" stroke="#000" stroke-miterlimit="10" fill="none"/><path d="M140.16 148.578h14v11h-14zm0 0" fill="#fff"/><g fill="#00f"><use xlink:href="#b" x="140.16" y="157.241"/><use xlink:href="#c" x="147.138" y="157.241"/></g><path d="M163.89 136.258l-2.288-12.004" stroke-width="1.2" stroke="#000" stroke-miterlimit="10" fill="none"/><path d="M161.602 124.254l-2.293-12.004" stroke-width="1.2" stroke="#00f" stroke-miterlimit="10" fill="none"/><path d="M169.082 132.78l-1.832-9.604" stroke-width="1.2" stroke="#000" stroke-miterlimit="10" fill="none"/><path d="M167.25 123.176l-1.832-9.602" stroke-width="1.2" stroke="#00f" stroke-miterlimit="10" fill="none"/><path d="M188.14 139.32l-24.25-3.062" stroke-width="1.2" stroke="#000" stroke-miterlimit="10" fill="none"/><path d="M159.31 112.25l21.417-11.773" stroke-width="1.2" stroke="#00f" stroke-miterlimit="10" fill="none"/><path d="M156.31 106.75h7v11h-7zm0 0" fill="#fff"/><use xlink:href="#b" x="156.309" y="115.413" fill="#00f"/><path d="M180.727 100.477l8.91 8.363" stroke-width="1.2" stroke="#00f" stroke-miterlimit="10" fill="none"/><path d="M189.637 108.84l8.906 8.363" stroke-width="1.2" stroke="#000" stroke-miterlimit="10" fill="none"/><path d="M173.727 94.977h14v11h-14zm0 0" fill="#fff"/><g fill="#00f"><use xlink:href="#b" x="173.727" y="103.64"/><use xlink:href="#c" x="180.704" y="103.64"/></g><path d="M198.543 117.203L188.14 139.32M202.707 121.863l-8.324 17.692M222.898 115.156l-24.355 2.047M188.14 139.32l13.95 20.067M202.09 159.387l24.355-2.047M204.043 153.453l19.484-1.637M226.445 157.34l6.973 10.035" stroke-width="1.2" stroke="#000" stroke-miterlimit="10" fill="none"/><path d="M233.418 167.375l6.977 10.035" stroke-width="1.2" stroke="#00f" stroke-miterlimit="10" fill="none"/><path d="M226.445 157.34l10.403-22.113" stroke-width="1.2" stroke="#000" stroke-miterlimit="10" fill="none"/><path d="M240.637 180.273l12.175-1.023" stroke-width="1.2" stroke="#00f" stroke-miterlimit="10" fill="none"/><path d="M252.813 179.25l12.18-1.023" stroke-width="1.2" stroke="#f00" stroke-miterlimit="10" fill="none"/><path d="M240.152 174.543l12.18-1.023" stroke-width="1.2" stroke="#00f" stroke-miterlimit="10" fill="none"/><path d="M252.332 173.52l12.176-1.024" stroke-width="1.2" stroke="#f00" stroke-miterlimit="10" fill="none"/><path d="M240.395 177.41l-5.204 11.06" stroke-width="1.2" stroke="#00f" stroke-miterlimit="10" fill="none"/><path d="M235.19 188.47l-5.198 11.053" stroke-width="1.2" stroke="#f00" stroke-miterlimit="10" fill="none"/><path d="M233.395 169.91h14v15h-14zm0 0" fill="#fff"/><use xlink:href="#b" x="233.395" y="182.012" fill="#00f"/><use xlink:href="#d" x="240.372" y="177.129" fill="#00f"/><path d="M260.75 169.863h8v11h-8zm0 0" fill="#fff"/><use xlink:href="#a" x="260.75" y="178.526" fill="#f00"/><path d="M218.992 192.023h11v15h-11zm0 0" fill="#fff"/><use xlink:href="#e" x="218.992" y="199.242" fill="#f00"/><use xlink:href="#a" x="221.8" y="204.125" fill="#f00"/><path d="M236.848 135.227l-13.95-20.07M230.73 136.5l-11.16-16.055M106.637 166.316l-23.797-5.582M82.84 160.734l-7.067-23.394M76.63 160.06l-5.653-18.72M66.113 178.555l16.727-17.82M75.773 137.34l-23.793-5.582M51.98 131.758l-16.73 17.82M54.5 137.477L41.117 151.73M35.25 149.578l7.066 23.4M42.316 172.977l23.797 5.578M46.008 167.934l19.035 4.464" stroke-width="1.2" stroke="#000" stroke-miterlimit="10" fill="none"/></g></svg>
